X: 1692
T: Segâh Sazsemâîsi
C: Hızır Ağa
O: Turkey
F: http://compmusic.upf.edu/node/140
N: segah--sazsemaisi--aksaksemai----hizir_aga
N: makam= segah
N: form= sazsemaisi
N: usul= aksaksemai = 10/8
M: 10/8
L: 1/16
K: C _1/4B _1/4e ^f 
Q: 1/4=114
%%MIDI tuningsystem comma53
BdcB B^AG4d/^c/d/e/ dcB3/2A/ G2z2  | \
w:  1. HANE  | 
BcB2 ^A2Bc B2cd ced4z2  | 
w:   | 
d4 c2de dcB4c4B2  | d4 e2d3Bcd cB=f3/2e/ d2z2  | 
w:   |   | 
BdcB B^AG4d/^c/d/e/ dcB3/2A/ G2z2  | \
w:   | 
BcB2 ^A2Bc B2cd ced4z2  | 
w:   | 
d4 c2de dcB4cd c2d2  | B4 c2Bc B^AGA BcA2 B4  | 
w:   |   | 
f4 efd4g4fg afgf  | d4 =f2fe eddc cBB3/2^A/ G2z2  | 
w:  2. HANE VE TESLİM  |   | 
d4 B2de dcB4c4d2  | B4 c2de cdef d^ef4z2  | 
w:   |   | 
f4 efd4g4fg afgf  | d4 =f2fe eddc cBB3/2^A/ G2z2  | 
w:  2. HANE VE TESLİM  |   | 
d4 B2de dcB4c4d2  | B4 c2Bc B^AGA BcA2 B4  | 
w:   |   | 
g4 ^abg4ab a2b4z2  | ^a4 b2c'b2c'a2 b2g4z2  | \
w:  3. HANE  |   | 
g4 ^abg4a2 b2ga g2a2  | 
w:   | 
b4 c'2bc' b^aga gab4z2  | g4 ^abg4ab a2b4z2  | 
w:   |   | 
^a4 b2c'b2c'a2 b2g4z2  | d'4 c'2d'e' d'c'b4c'd' c'2d'2  | \
w:   |   | 
b4 c'2bc' b^aga bc'a2 b4  | 
w:   | 
g4 ^abg4ab a2b4z2  | ^a4 b2c'b2c'a2 b2g4z2  | \
w:   |   | 
g4 ^abg4a2 b2ga g2a2  | 
w:   | 
b4 c'2bc' b^aga gab4z2  | g4 ^abg4ab a2b4z2  | 
w:   |   | 
^a4 b2c'b2c'a2 b2g4z2  | d'4 c'2d'e' d'c'b4c'd' c'2d'2  | \
w:   |   | 
b4 c'2bc' b^aga bc'a2 b4  | 
w:   | 
f4 efd4g4fg afgf  | d4 =f2fe eddc cBB3/2^A/ G2z2  | 
w:  2. HANE VE TESLİM  |   | 
d4 B2de dcB4c4d2  | B4 c2de cdef d^ef4z2  | 
w:   |   | 
f4 efd4g4fg afgf  | d4 =f2fe eddc cBB3/2^A/ G2z2  | 
w:  2. HANE VE TESLİM  |   | 
d4 B2de dcB4c4d2  | B4 c2Bc B^AGA BcA2 B4  | 
w:   |   | 
z24  | B2c2B2^A2B2c2B2A2B8  | ^A2B2c2d2B2c2A2B2G8  | \
w:  |  4. HANE  |   | 
A2_B2A2G2A2B2A2G2A4B4  | 
w:   | 
G2^A2B2c2B2A2G2A2B8  | B2c2B2^A2B2c2B2A2B8  | \
w:   |   | 
^A2B2c2d2B2c2A2B2G8  | 
w:   | 
A2_B2A2G2A2B2A2G2A4B4  | G2^A2B2c2B2A2G2A2B8  | \
w:   |   | 
B2c2d2e2=f2e2d2c2B2A2G4  | 
w:   | 
e2d2e2c2d2B2c2^A2B4z4  | B2c2d2e2=f2e2d2c2B2A2G4  | 
w:   |   | 
e2d2e2c2d2B2c2^A2B4z4  | z20  | f4 efd4g4fg afgf  | 
w:   |  |  2. HANE VE TESLİM  | 
d4 =f2fe eddc cBB3/2^A/ G2z2  | d4 B2de dcB4c4d2  | 
w:   |   | 
B4 c2de cdef d^ef4z2  | f4 efd4g4fg afgf  | 
w:   |  2. HANE VE TESLİM  | 
d4 =f2fe eddc cBB3/2^A/ G2z2  | d4 B2de dcB4c4d2  | 
w:   |   | 
B4 c2Bc B^AGA BcA2 B4  | |


